static/card-icons/command-line.svg

<svg viewBox="0 0 512 512" xmlns="http://www.w3.org/2000/svg"><path d="m495.304 61.217h-478.608c-9.221 0-16.696 7.476-16.696 16.696v356.174c0 9.22 7.475 16.696 16.696 16.696h478.609c9.22 0 16.696-7.475 16.696-16.696v-356.174c-.001-9.22-7.476-16.696-16.697-16.696zm-16.695 356.174h-445.218v-222.967h445.217v222.967zm0-256.358h-445.218v-66.424h445.217v66.424z"/><path d="m443.568 103.247c-12.275 0-22.261 9.986-22.261 22.261s9.985 22.261 22.261 22.261c12.275 0 22.261-9.986 22.261-22.261s-9.986-22.261-22.261-22.261z"/><path d="m382.926 103.247c-12.275 0-22.261 9.986-22.261 22.261s9.986 22.261 22.261 22.261 22.261-9.986 22.261-22.261-9.986-22.261-22.261-22.261z"/><path d="m322.285 103.247c-12.275 0-22.261 9.986-22.261 22.261s9.985 22.261 22.261 22.261c12.275 0 22.261-9.986 22.261-22.261s-9.986-22.261-22.261-22.261z"/><path d="m235.45 293.193-54.653-46.504c-7.022-5.976-17.559-5.128-23.535 1.896-5.976 7.022-5.127 17.559 1.896 23.535l39.709 33.789-39.709 33.789c-7.023 5.976-7.871 16.512-1.896 23.535 5.975 7.022 16.512 7.871 23.535 1.896l54.653-46.504c7.83-6.663 7.83-18.771 0-25.432z"/><path d="m342.022 335.716h-65.954c-9.22 0-16.696 7.475-16.696 16.696s7.475 16.696 16.696 16.696h65.954c9.22 0 16.696-7.475 16.696-16.696s-7.476-16.696-16.696-16.696z"/></svg>

<?xml version="1.0" encoding="iso-8859-1"?>
<!-- Generator: Adobe Illustrator 19.0.0, SVG Export Plug-In . SVG Version: 6.00 Build 0)  -->
<svg version="1.1" id="Layer_1" xmlns="http://www.w3.org/2000/svg" xmlns:xlink="http://www.w3.org/1999/xlink" x="0px" y="0px"
	 viewBox="0 0 512 512" style="enableBackground:new 0 0 512 512;" xml:space="preserve">
<g>
	<g>
		<path d="M495.304,61.217H16.696C7.475,61.217,0,68.693,0,77.913v356.174c0,9.22,7.475,16.696,16.696,16.696h478.609
			c9.22,0,16.696-7.475,16.696-16.696V77.913C512,68.693,504.525,61.217,495.304,61.217z M478.609,417.391H33.391V194.424h445.217
			V417.391z M478.609,161.033H33.391V94.609h445.217V161.033z"/>
	</g>
</g>
<g>
	<g>
		<path d="M443.568,103.247c-12.275,0-22.261,9.986-22.261,22.261c0,12.275,9.985,22.261,22.261,22.261
			c12.275,0,22.261-9.986,22.261-22.261C465.829,113.233,455.843,103.247,443.568,103.247z"/>
	</g>
</g>
<g>
	<g>
		<path d="M382.926,103.247c-12.275,0-22.261,9.986-22.261,22.261c0,12.275,9.986,22.261,22.261,22.261s22.261-9.986,22.261-22.261
			C405.187,113.233,395.201,103.247,382.926,103.247z"/>
	</g>
</g>
<g>
	<g>
		<path d="M322.285,103.247c-12.275,0-22.261,9.986-22.261,22.261c0,12.275,9.985,22.261,22.261,22.261
			c12.275,0,22.261-9.986,22.261-22.261C344.546,113.233,334.56,103.247,322.285,103.247z"/>
	</g>
</g>
<g>
	<g>
		<path d="M235.45,293.193l-54.653-46.504c-7.022-5.976-17.559-5.128-23.535,1.896c-5.976,7.022-5.127,17.559,1.896,23.535
			l39.709,33.789l-39.709,33.789c-7.023,5.976-7.871,16.512-1.896,23.535c5.975,7.022,16.512,7.871,23.535,1.896l54.653-46.504
			C243.28,311.962,243.28,299.854,235.45,293.193z"/>
	</g>
</g>
<g>
	<g>
		<path d="M342.022,335.716h-65.954c-9.22,0-16.696,7.475-16.696,16.696s7.475,16.696,16.696,16.696h65.954
			c9.22,0,16.696-7.475,16.696-16.696S351.242,335.716,342.022,335.716z"/>
	</g>
</g>
<g>
</g>
<g>
</g>
<g>
</g>
<g>
</g>
<g>
</g>
<g>
</g>
<g>
</g>
<g>
</g>
<g>
</g>
<g>
</g>
<g>
</g>
<g>
</g>
<g>
</g>
<g>
</g>
<g>
</g>
</svg>
